res/skins/Tango/buttons/btn_headSplit_off.svg

<?xml version="1.0" encoding="UTF-8" standalone="no"?>
<!-- Created with Inkscape (http://www.inkscape.org/) -->

<svg
   xmlns:dc="http://purl.org/dc/elements/1.1/"
   xmlns:cc="http://creativecommons.org/ns#"
   xmlns:rdf="http://www.w3.org/1999/02/22-rdf-syntax-ns#"
   xmlns:svg="http://www.w3.org/2000/svg"
   xmlns="http://www.w3.org/2000/svg"
   xmlns:inkscape="http://www.inkscape.org/namespaces/inkscape"
   version="1.1"
   width="32"
   height="24"
   id="svg11828">
  <metadata
     id="metadata11871">
    <rdf:RDF>
      <cc:Work
         rdf:about="">
        <dc:format>image/svg+xml</dc:format>
        <dc:type
           rdf:resource="http://purl.org/dc/dcmitype/StillImage" />
        <dc:title></dc:title>
      </cc:Work>
    </rdf:RDF>
  </metadata>
  <defs
     id="defs11830">
    <inkscape:path-effect
       effect="spiro"
       id="path-effect11900" />
    <linearGradient
       id="a">
      <stop
         id="stop11833"
         style="stop-color:#002464;stop-opacity:1"
         offset="0" />
      <stop
         id="stop11835"
         style="stop-color:#0872e9;stop-opacity:1"
         offset="0.18000001" />
      <stop
         id="stop11837"
         style="stop-color:#0872e9;stop-opacity:1"
         offset="0.81819808" />
      <stop
         id="stop11839"
         style="stop-color:#002f64;stop-opacity:1"
         offset="1" />
    </linearGradient>
    <linearGradient
       id="b">
      <stop
         id="stop11842"
         style="stop-color:#002464;stop-opacity:1"
         offset="0" />
      <stop
         id="stop11844"
         style="stop-color:#0872e9;stop-opacity:1"
         offset="0.18000001" />
      <stop
         id="stop11846"
         style="stop-color:#0872e9;stop-opacity:1"
         offset="0.81819808" />
      <stop
         id="stop11848"
         style="stop-color:#002f64;stop-opacity:1"
         offset="1" />
    </linearGradient>
    <linearGradient
       id="c">
      <stop
         id="stop11851"
         style="stop-color:#002464;stop-opacity:1"
         offset="0" />
      <stop
         id="stop11853"
         style="stop-color:#0872e9;stop-opacity:1"
         offset="0.18000001" />
      <stop
         id="stop11855"
         style="stop-color:#0872e9;stop-opacity:1"
         offset="0.81819808" />
      <stop
         id="stop11857"
         style="stop-color:#002f64;stop-opacity:1"
         offset="1" />
    </linearGradient>
  </defs>
  <path
     d="m 20.882656,11.873073 h 2.212098 v 4.508377 h -2.212098 z m 7.189319,-4.3981995 -4.424197,4.5083755 v 4.508376 L 28.071975,21 H 28.625 V 7.4748735 h -0.553025 z"
     id="path11885"
     style="fill:#888888;fill-opacity:1;stroke:none" />
  <g
     transform="translate(-0.5587487,1.0210608)"
     id="g11891"
     style="fill:#888888;fill-opacity:1;stroke:none">
    <path
       d="M 4.5441582,9.6185766 6.5774145,9.2394924 C 6.89925,9.1794773 7.2066536,9.3902712 7.2666608,9.7120981 L 7.970714,13.488152 c 0.060007,0.321827 -0.1507788,0.62921 -0.4726143,0.689225 L 5.4648439,14.556462 C 5.1430086,14.616477 4.8356051,14.405683 4.7755978,14.083856 L 4.0715439,10.307802 C 4.0115369,9.985975 4.2223229,9.6785917 4.5441582,9.6185766 z"
       id="path11861"
       style="fill:#888888;fill-opacity:1;stroke:none" />
    <path
       d="m 10.127509,2.1337226 c -3.3022178,0 -5.9925195,2.690233 -5.9925195,5.9925093 0,0.3775675 0.03445,0.7408293 0.1015682,1.0987824 0.2857849,1.5561857 0.581617,3.1103387 0.8864127,4.6629047 L 6.4248893,13.638621 C 6.1437951,12.049893 5.7638791,10.360923 5.5384763,8.901843 5.4949035,8.6478218 5.4646085,8.3949036 5.4646085,8.1262319 c 0,-2.5835433 2.0793801,-4.662905 4.6629005,-4.662905 2.58352,0 4.6629,2.0793617 4.6629,4.662905 0,0.2686717 -0.03029,0.5215899 -0.07387,0.7756111 -0.225402,1.45908 -0.605318,3.14805 -0.886413,4.736778 l 1.301919,0.249298 c 0.304796,-1.552566 0.600628,-3.106719 0.886413,-4.6629047 0.06712,-0.3579531 0.101568,-0.7212149 0.101568,-1.0987824 0,-3.3022763 -2.690301,-5.9925093 -5.992519,-5.9925093 z"
       id="path11863"
       style="font-weight:400;text-indent:0;text-align:start;line-height:normal;text-transform:none;block-progression:tb;color:#000000;fill:#888888;fill-opacity:1;stroke:none;marker:none;overflow:visible;font-family:Sans;-inkscape-font-specification:Sans" />
    <path
       d="M 15.710859,9.6186111 13.677603,9.2394924 c -0.321835,-0.059981 -0.629239,0.1507788 -0.689246,0.4726057 l -0.704053,3.7760889 c -0.06001,0.321827 0.150779,0.62921 0.472614,0.689225 l 2.033256,0.379084 c 0.321835,0.05995 0.629239,-0.150779 0.689246,-0.47264 l 0.704054,-3.776089 c 0.06001,-0.3217575 -0.15078,-0.6292098 -0.472615,-0.6891559 z"
       id="path11865"
       style="fill:#888888;fill-opacity:1;stroke:none" />
  </g>
  <path
     d="M 26.53125,1.625"
     id="path11867"
     style="font-weight:400;text-indent:0;text-align:start;line-height:normal;text-transform:none;block-progression:tb;color:#000000;fill:#888888;fill-opacity:1;stroke:none;marker:none;overflow:visible;font-family:Sans;-inkscape-font-specification:Sans" />
  <path
     d="m 23.613,1 -11.375,22 1.515625,0 11.375,-22 z"
     id="path11898"
     style="font-size:medium;font-style:normal;font-variant:normal;font-weight:normal;font-stretch:normal;text-indent:0;text-align:start;text-decoration:none;line-height:normal;letter-spacing:normal;word-spacing:normal;text-transform:none;direction:ltr;block-progression:tb;writing-mode:lr-tb;text-anchor:start;baseline-shift:baseline;color:#000000;fill:#888888;fill-opacity:1;fill-rule:nonzero;stroke:none;stroke-width:1.5;marker:none;visibility:visible;display:inline;overflow:visible;enable-background:accumulate;font-family:Sans;-inkscape-font-specification:Sans" />
</svg>

<!-- Created with Inkscape (http://www.inkscape.org/) -->
<svg id="svg11828" width="32" height="24" version="1.1" xmlns="http://www.w3.org/2000/svg"><path id="path11885" d="m20.883 11.873h2.2121v4.5084h-2.2121zm7.1893-4.3982-4.4242 4.5084v4.5084l4.4242 4.5084h0.55302v-13.525h-0.55302z" fill="#888"/><g id="g11891" transform="translate(-.55875 1.0211)" fill="#888"><path id="path11861" d="m4.5442 9.6186 2.0333-0.37908c0.32184-0.060015 0.62924 0.15078 0.68925 0.47261l0.70405 3.7761c0.060007 0.32183-0.15078 0.62921-0.47261 0.68922l-2.0333 0.37908c-0.32184 0.060015-0.62924-0.15078-0.68925-0.47261l-0.70405-3.7761c-0.060007-0.32183 0.15078-0.62921 0.47261-0.68923z"/><path id="path11863" d="m10.128 2.1337c-3.3022 0-5.9925 2.6902-5.9925 5.9925 0 0.37757 0.03445 0.74083 0.10157 1.0988 0.28578 1.5562 0.58162 3.1103 0.88641 4.6629l1.3019-0.2493c-0.28109-1.5887-0.66101-3.2777-0.88641-4.7368-0.043573-0.25402-0.073868-0.50694-0.073868-0.77561 0-2.5835 2.0794-4.6629 4.6629-4.6629 2.5835 0 4.6629 2.0794 4.6629 4.6629 0 0.26867-0.03029 0.52159-0.07387 0.77561-0.2254 1.4591-0.60532 3.148-0.88641 4.7368l1.3019 0.2493c0.3048-1.5526 0.60063-3.1067 0.88641-4.6629 0.06712-0.35795 0.10157-0.72121 0.10157-1.0988 0-3.3023-2.6903-5.9925-5.9925-5.9925z" color="#000000" style="block-progression:tb;text-indent:0;text-transform:none"/><path id="path11865" d="m15.711 9.6186-2.0333-0.37912c-0.32184-0.059981-0.62924 0.15078-0.68925 0.47261l-0.70405 3.7761c-0.06001 0.32183 0.15078 0.62921 0.47261 0.68922l2.0333 0.37908c0.32184 0.05995 0.62924-0.15078 0.68925-0.47264l0.70405-3.7761c0.06001-0.32176-0.15078-0.62921-0.47262-0.68916z"/></g><path id="path11867" d="m26.531 1.625" color="#000000" fill="#888" style="block-progression:tb;text-indent:0;text-transform:none"/><path id="path11898" d="m23.613 1-11.375 22h1.5156l11.375-22z" color="#000000" fill="#888" style="block-progression:tb;text-indent:0;text-transform:none"/></svg>
